X: 78
T:First Western Change
R:jig
M:6/8
L:1/8
K:G
d|gba gfe|d2B GBd|d^cd F2d|d^cd GBd|
gba gfe|d2B GBd|d^cd DEF|G3 G2:|
K:D
A|AFA B2A|FGA f2f|g2f agf|ece a^ga|
AFA B2A|FGA f3|gfg ABc|d3 d2:|
